svg/fluentui-system-icons/ic_fluent_table_simple_checkmark_20_filled.svg

<svg width="20" height="20" viewBox="0 0 20 20" fill="none" xmlns="http://www.w3.org/2000/svg">
<path d="M14 17H10.5V10.5H17L17 14C17 15.6569 15.6569 17 14 17ZM17 9.5H10.5V3H14C15.6569 3 17 4.34315 17 6L17 9.5ZM9.5 9.5V3H6C4.34315 3 3 4.34315 3 6V9.5H9.5ZM9.5 17V10.5H3V14C3 15.6569 4.34315 17 6 17H9.5ZM15.3524 13.1036C15.5477 12.9083 15.5477 12.5917 15.3524 12.3964C15.1572 12.2012 14.8406 12.2012 14.6453 12.3964L13.2482 13.7935L12.849 13.3958C12.6534 13.2009 12.3368 13.2015 12.1419 13.3971C11.947 13.5927 11.9476 13.9093 12.1432 14.1042L12.896 14.8542C13.0913 15.0489 13.4074 15.0486 13.6024 14.8536L15.3524 13.1036Z" fill="#212121"/>
</svg>

<svg xmlns="http://www.w3.org/2000/svg" width="20" height="20"><path d="M14 17h-3.5v-6.5H17V14a3 3 0 0 1-3 3Zm3-7.5h-6.5V3H14a3 3 0 0 1 3 3v3.5Zm-7.5 0V3H6a3 3 0 0 0-3 3v3.5h6.5Zm0 7.5v-6.5H3V14a3 3 0 0 0 3 3h3.5Zm5.852-3.896a.5.5 0 0 0-.707-.708l-1.397 1.397-.399-.397a.5.5 0 0 0-.706.708l.753.75a.5.5 0 0 0 .706 0l1.75-1.75Z"/></svg>
